src/icons/svg/release-grey.svg

<?xml version="1.0" encoding="UTF-8"?>
<svg width="14px" height="14px" viewBox="0 0 14 14" version="1.1" xmlns="http://www.w3.org/2000/svg" xmlns:xlink="http://www.w3.org/1999/xlink">
    <!-- Generator: Sketch 63 (92445) - https://sketch.com -->
    <title>编组 4</title>
    <desc>Created with Sketch.</desc>
    <g id="图标页面" stroke="none" stroke-width="1" fill="none" fill-rule="evenodd">
        <g id="画板" transform="translate(-275.000000, -42.000000)" fill="#333333" fill-rule="nonzero">
            <g id="释放数据" transform="translate(266.000000, 33.000000)">
                <g transform="translate(9.000000, 9.000000)" id="路径">
                    <path d="M14,0.489716727 L14,0.487325528 C14,0.474413075 14,0.461022387 13.9990471,0.4476317 L13.9980943,0.436153964 C13.9947803,0.409606835 13.9900088,0.383263605 13.9838015,0.35724453 L13.9919007,0.393112455 C13.9844142,0.354492152 13.9727522,0.316807096 13.9571216,0.280726281 L13.9790372,0.341940877 C13.9670418,0.298446928 13.948913,0.256897972 13.925201,0.218555216 L13.9637916,0.29985585 C13.9425866,0.248300487 13.9127798,0.200751757 13.8756526,0.159253586 L13.9413995,0.254423141 C13.9065937,0.18944666 13.8581537,0.132827154 13.7994243,0.0884742049 L13.8937568,0.180296092 C13.8435464,0.119723051 13.7796919,0.0720188443 13.707474,0.0411285443 L13.8251514,0.112386159 L13.8251514,0.111429677 C13.7739013,0.0691072452 13.7143151,0.0381414612 13.6503027,0.0205642722 L13.7898958,0.0851265366 L13.7784616,0.0779529517 C13.7269631,0.0422070785 13.6687783,0.0173152986 13.6074243,0.00478238529 L13.7408238,0.0559539625 C13.6893261,0.0271357489 13.6329469,0.00816307878 13.5745509,0 L13.6903226,0.0329984907 C13.6486553,0.0169889533 13.6047929,0.00747347646 13.5602581,0.00478238529 L13.6498263,0.0186513208 C13.612821,0.00852636912 13.5747697,0.00274881365 13.5364367,0.00143471699 L13.6026601,0.00908653625 C13.5726996,0.00305763289 13.5422191,0 13.5116626,0 L13.5169033,0 L13.4754541,0.00143471699 L13.4644963,0.0033476683 C13.4373531,0.00621080382 13.4104467,0.0110052532 13.3839802,0.0176948382 L13.4216179,0.00908653625 C13.3811216,0.0172166039 13.3453896,0.0277378571 13.3106105,0.0430415096 L13.3734988,0.0219989891 C13.3255818,0.0364414373 13.2802388,0.0583921865 13.2391464,0.0870394879 C13.3196626,0.0416067786 13.3106105,0.0396938273 13.3025112,0.0439979783 C13.2982234,0.0459109296 13.2934591,0.0439979783 13.2906005,0.0439979783 L0.259852011,6.88281563 C0.0992288686,6.96877881 -0.000794476288,7.13692812 0,7.31964502 C0.000803984671,7.50236192 0.102294464,7.66962306 0.26366343,7.75416707 L3.76540017,9.52747727 C4.00329695,9.64276745 4.28936404,9.54595629 4.40916138,9.30961484 C4.52895873,9.07327339 4.43851072,8.78415866 4.20561851,8.65899526 L1.54763356,7.31275249 L11.583087,2.04877586 L5.39668542,9.49304406 C5.32404485,9.58040424 5.28425342,9.69058542 5.28424871,9.80437765 L5.28424871,13.5274682 C5.2924658,13.7907998 5.50750347,14 5.7699658,14 C6.03242813,14 6.24746579,13.7907998 6.25568288,13.5274682 L6.25568288,9.98371727 L12.7803475,2.13055473 L11.2948488,12.214224 L7.79311207,10.4696081 C7.55501308,10.359797 7.27305639,10.4592474 7.15571995,10.6944259 C7.03838352,10.9296044 7.12792356,11.2158165 7.35813443,11.3414378 L11.4615982,13.3863877 C11.6005692,13.4546368 11.7635812,13.4525287 11.9007544,13.3807083 C12.0379277,13.3088879 12.1329348,13.175904 12.1567048,13.0224479 L13.996665,0.545192455 L13.9976179,0.53132352 C14,0.518889301 14,0.504542131 14,0.489716727 Z"></path>
                </g>
            </g>
        </g>
    </g>
</svg>

<svg width="14" height="14"><path d="M14 .49V.487l-.001-.04v-.01a.73.73 0 00-.015-.08l.008.036a.542.542 0 00-.035-.112l.022.06a.474.474 0 00-.054-.122l.039.08a.49.49 0 00-.088-.14l.065.095A.51.51 0 0013.8.088l.095.092a.495.495 0 00-.187-.139l.118.071A.47.47 0 0013.65.02l.14.064-.012-.007a.462.462 0 00-.17-.073l.133.051A.475.475 0 0013.575 0l.115.033a.436.436 0 00-.13-.028l.09.014A.494.494 0 0013.536 0l.067.008A.461.461 0 0013.512 0h.005l-.042.001-.01.002a.574.574 0 00-.081.015l.038-.009a.528.528 0 00-.111.034l.062-.021a.474.474 0 00-.134.065c.08-.045.072-.047.064-.043-.005.002-.01 0-.012 0L.26 6.883a.493.493 0 00.004.871l3.501 1.773a.485.485 0 00.644-.217.488.488 0 00-.203-.651L1.548 7.313l10.035-5.264-6.186 7.444a.487.487 0 00-.113.311v3.723a.487.487 0 00.972 0V9.984L12.78 2.13l-1.485 10.083-3.502-1.744a.489.489 0 00-.435.872l4.104 2.044a.485.485 0 00.695-.364L13.997.545V.531C14 .52 14 .505 14 .49z"/></svg>
